X: 52
T: Chips and Sauce
B: canberra pickers and fiddlers
B: old time tunes update
B: tunes
L:1/8
Q: 1/4=100
K:A
V:1 
|:"F#m"f3c- c2c2 | fefg a2a2 | "A"efec BABc | dcBA B2A2 |\
| "F#m"f3c- c2c2 | fefg a2a2- | afaf efec | BA2A A2A2 :|
|:"E"B3G- G2G2 | EFG2 G4 | B3c B2A2 | "D"F4 "A"E4 |\
| "E"B3G- G2G2 | EFG2 G4 | B2Bc efec | "A"BA2A [1 A2A2 :|[2 A4 |]
% abcbook-tune_id 67a7d9ec3e0722f6a2140306
% abcbook-tune_composer_id 
% abcbook-link-0 https://www.youtube.com/watch?v=VhNlOv1BY00
% abcbook-link-title-0 Chips &amp; Sauce (tune by Ira Bernstein) Swannanoa OT Week 2023
% abcbook-link-start-at-0 15
% abcbook-boost 0
% abcbook-difficulty 0
% abcbook-tags old time tunes
% abcbook-tablature 
% abcbook-transpose 
% abcbook-tuning AEAE
% abcbook-lastupdated 1739070995151
% abcbook-src-url 
% abcbook-soundfonts 
% abcbook-repeats 1


